src/xmb/monochrome/Nokia - N-Gage (WIP).svg

<svg xmlns="http://www.w3.org/2000/svg" xml:space="preserve" viewBox="0 0 64 64"><style>.st0{fill:#fff}</style><g id="ngage"><path d="M59.3 33.03s-.12-2.47-.74-6.24-.53-2.94-.96-4.82-1.33-3.16-3.86-3.37-14.51-.77-14.51-.77H24.77s-11.98.56-14.51.77-3.43 1.49-3.86 3.37-.34 1.05-.96 4.82-.74 6.24-.74 6.24-.15 2.12 1.37 3.76 6.58 4.59 6.58 4.59 8.25 4.79 19.36 4.79 19.36-4.79 19.36-4.79 5.06-2.95 6.58-4.59c1.51-1.64 1.35-3.76 1.35-3.76m-3.22-6.83.46 2.64c.01.07-.01.14-.05.2s-.11.09-.19.09c-.02 0-1.63.12-3.08.15-.04-.94-.17-1.96-.37-3.03l2.96-.26c.12-.02.25.08.27.21m-1.76-4.58c.41-.06.81.18.93.58l.45 1.47c.05.16.03.33-.06.47s-.23.23-.39.26c-.87.13-2.05.3-2.71.38a33 33 0 0 0-.79-2.71c.82-.15 2.04-.36 2.57-.45m-5.75 9.15h3.72c-.04.92-.17 1.92-.38 2.98-1.45-.13-2.88-.27-3.51-.33.1-.85.16-1.74.17-2.65m-.24-3.95c.52-.07 1.98-.3 3.56-.45.2 1.05.36 2 .41 2.91l-3.73.04c-.04-.79-.09-1.61-.24-2.5m3.27-1.91-3.54.49c-.16-.72-.43-1.57-.65-2.31 1.9-.5 3.42-.86 3.42-.86.47.93.77 2.68.77 2.68m-7.72 6.9c0-.4 1.31-.87 3.82-1.01-.02.86-.07 1.71-.15 2.52-2.17-.4-3.67-1.02-3.67-1.51m3.5 2.92c-.12.81-.27 1.59-.46 2.35-1.71-.59-2.8-1.24-2.95-1.68-.02-.06-.02-.11.02-.16.26-.4 1.2-.54 2.25-.54.42 0 .72-.01 1.14.03m-.01-7.79c.14.84.23 1.64.27 2.39-2.5-.07-3.81-.5-3.81-.9 0-.49 1.44-1.09 3.54-1.49m-3.57-1.78c-.09-.4 1.11-1.12 2.84-1.71.21.7.39 1.39.55 2.06-2.13.22-3.31-.01-3.39-.35m1.46-5.35c.29-.18.62-.28.96-.29 1.05-.03 3.36-.03 3.56.62.26.85-3.15 1.82-3.15 1.82s-3.15.98-3.52.13c-.29-.65 1.34-1.77 2.15-2.28m-31.55.45c.2-.65 2.51-.65 3.56-.62.34.01.67.11.96.29.81.51 2.44 1.63 2.16 2.28-.37.85-3.52-.13-3.52-.13s-3.42-.98-3.16-1.82M6.7 30.62c0-.32.47-6.21 1.77-8.78.56-1.1 2.4-.64 3.42-.44s7.98 1.82 7.98 5.98c-.23 2.69-4.43 4.33-8.8 4.33-4.37-.01-4.37-.6-4.37-1.09m13.09 3.04c-.19.54-1.76 1.29-3.31 1.83 0 0-.22-1.12-.37-2.62 1.3-.1 3.25-.03 3.66.61.04.06.05.11.02.18m-9.66 3.5c-.08.01-.16.02-.25.02-.28 0-.56-.09-.83-.26-.4-.25-1.49-1.8-1.77-2.61-.07-.17-.07-.31-.01-.41.08-.14.26-.18.25-.18l3.22-.43.86 3.52zm2.26-.59-.79-3.34 3.48-.28c.23 2.01.51 2.78.51 2.78zm5.05 5.6-3.58-1.61c-.18-.08-.22-.24-.21-.36s.1-.27.29-.31l2.62-.62c.44 1.3 1.31 2.72 1.31 2.72s-.37.21-.43.18m1.13-.51c-.28-.5-.7-1.37-1.12-2.59.61-.09 1.23-.14 1.77-.14.85 0 1.51.13 1.66.46.23.52-1 1.52-2.31 2.27m21.49-3.46c-.27.61-.94 1.13-1.59 1.38s-2.38 1.01-6.47 1.01-5.83-.77-6.47-1.01-1.31-.77-1.59-1.38c-.27-.61-1.61-3.44-1.61-8.48s2.43-10.37 2.43-10.37 3.18-.31 7.23-.31 7.23.31 7.23.31 2.43 5.34 2.43 10.37c.02 5.04-1.32 7.88-1.59 8.48m3 .97c.15-.33.81-.46 1.66-.46.54 0 1.16.05 1.77.14-.42 1.23-.85 2.09-1.12 2.59-1.32-.74-2.55-1.74-2.31-2.27m7 1.18-3.58 1.61c-.06.03-.43-.17-.43-.17s.87-1.42 1.31-2.72l2.62.62c.19.04.27.18.29.31s-.03.27-.21.35m.67-2.23-2.95-.81s.39-1.12.48-2.48l3.34.38c-.29 1.18-.62 2.2-.87 2.91m4.92-1.74-1.42 1.35c-.68.65-1.66.88-2.56.62l-.05-.02c.23-.66.58-1.75.9-3.03l2.92.42c.15.02.26.12.31.26.05.15.01.3-.1.4m.98-2.48c-.04.03-.07.04-.17.03-.01 0-1.66.04-3.62-.11.21-1.08.33-2.1.38-3.05 1.46 0 3.12.02 3.21.02.15.01.46.03.46 1.59.01 1.15-.18 1.45-.26 1.52" class="st0"/><path d="M13.02 26.82c0-.68-1.95-1.41-1.95-1.41s-.36.5-.36 1.41c0 .92.36 1.45.36 1.45s1.95-.78 1.95-1.45m3.33-1.43s-1.95.74-1.95 1.41c0 .68 1.95 1.45 1.95 1.45s.36-.54.36-1.45c0-.92-.36-1.41-.36-1.41m-2.66.73c.68 0 1.41-1.95 1.41-1.95s-.5-.36-1.41-.36c-.92 0-1.45.36-1.45.36s.77 1.95 1.45 1.95m.02 1.39c-.68 0-1.45 1.95-1.45 1.95s.54.36 1.45.36c.92 0 1.41-.36 1.41-.36s-.74-1.95-1.41-1.95" class="st0"/></g><g id="cone"><path d="m38.59 13.42-.69-2.25c-.13-.41-.49-.7-.9-.7h-1.1l.36 1.19.11.37-.33.2c-.07.04-1.77 1.07-4.06 1.07-2.3 0-3.97-1.03-4.04-1.07l-.33-.2.11-.37.36-1.19H27c-.41 0-.77.28-.9.7l-.69 2.25c-.2.65.25 1.33.9 1.33H37.7c.64-.01 1.09-.68.89-1.33" class="st0"/><path d="m35.5 11.56-.87-2.85c-.7.1-1.63.2-2.68.2-1 0-1.89-.09-2.58-.19l-.87 2.84s1.48.92 3.49.92 3.51-.92 3.51-.92m-1.59-5.21L32.73 2.5s-.34.09-.73.09-.73-.09-.73-.09l-1.18 3.85c.7.08 1.43.15 1.91.15.49.01 1.21-.06 1.91-.15" class="st0"/></g></svg>

<?xml version="1.0" encoding="utf-8"?>
<svg version="1.1" xmlns="http://www.w3.org/2000/svg" xmlns:xlink="http://www.w3.org/1999/xlink" x="0px" y="0px" viewBox="0 0 64 64" style="enable-background:new 0 0 64 64;" xml:space="preserve">
<style type="text/css">
	.st0{fill:#FFFFFF;}
</style>
<g id="ngage">
	<path class="st0" d="M59.3,33.03c0,0-0.12-2.47-0.74-6.24s-0.53-2.94-0.96-4.82s-1.33-3.16-3.86-3.37c-2.53-0.21-14.51-0.77-14.51-0.77H32h-7.23c0,0-11.98,0.56-14.51,0.77c-2.53,0.21-3.43,1.49-3.86,3.37c-0.43,1.88-0.34,1.05-0.96,4.82S4.7,33.03,4.7,33.03s-0.15,2.12,1.37,3.76s6.58,4.59,6.58,4.59s8.25,4.79,19.36,4.79s19.36-4.79,19.36-4.79s5.06-2.95,6.58-4.59C59.46,35.15,59.3,33.03,59.3,33.03z M56.08,26.2l0.46,2.64c0.01,0.07-0.01,0.14-0.05,0.2s-0.11,0.09-0.19,0.09c-0.02,0-1.63,0.12-3.08,0.15c-0.04-0.94-0.17-1.96-0.37-3.03l2.96-0.26C55.93,25.97,56.06,26.07,56.08,26.2z M54.32,21.62c0.41-0.06,0.81,0.18,0.93,0.58l0.45,1.47c0.05,0.16,0.03,0.33-0.06,0.47s-0.23,0.23-0.39,0.26c-0.87,0.13-2.05,0.3-2.71,0.38c-0.27-1.09-0.56-2.04-0.79-2.71C52.57,21.92,53.79,21.71,54.32,21.62zM48.57,30.77h3.72c-0.04,0.92-0.17,1.92-0.38,2.98c-1.45-0.13-2.88-0.27-3.51-0.33C48.5,32.57,48.56,31.68,48.57,30.77zM48.33,26.82c0.52-0.07,1.98-0.3,3.56-0.45c0.2,1.05,0.36,2,0.41,2.91l-3.73,0.04C48.53,28.53,48.48,27.71,48.33,26.82zM51.6,24.91l-3.54,0.49c-0.16-0.72-0.43-1.57-0.65-2.31c1.9-0.5,3.42-0.86,3.42-0.86C51.3,23.16,51.6,24.91,51.6,24.91zM43.88,31.81c0-0.4,1.31-0.87,3.82-1.01c-0.02,0.86-0.07,1.71-0.15,2.52C45.38,32.92,43.88,32.3,43.88,31.81z M47.38,34.73c-0.12,0.81-0.27,1.59-0.46,2.35c-1.71-0.59-2.8-1.24-2.95-1.68c-0.02-0.06-0.02-0.11,0.02-0.16c0.26-0.4,1.2-0.54,2.25-0.54C46.66,34.7,46.96,34.69,47.38,34.73z M47.37,26.94c0.14,0.84,0.23,1.64,0.27,2.39c-2.5-0.07-3.81-0.5-3.81-0.9C43.83,27.94,45.27,27.34,47.37,26.94z M43.8,25.16c-0.09-0.4,1.11-1.12,2.84-1.71c0.21,0.7,0.39,1.39,0.55,2.06C45.06,25.73,43.88,25.5,43.8,25.16z M45.26,19.81c0.29-0.18,0.62-0.28,0.96-0.29c1.05-0.03,3.36-0.03,3.56,0.62c0.26,0.85-3.15,1.82-3.15,1.82s-3.15,0.98-3.52,0.13C42.82,21.44,44.45,20.32,45.26,19.81z M13.71,20.26c0.2-0.65,2.51-0.65,3.56-0.62c0.34,0.01,0.67,0.11,0.96,0.29c0.81,0.51,2.44,1.63,2.16,2.28c-0.37,0.85-3.52-0.13-3.52-0.13S13.45,21.1,13.71,20.26z M6.7,30.62c0-0.32,0.47-6.21,1.77-8.78c0.56-1.1,2.4-0.64,3.42-0.44c1.02,0.2,7.98,1.82,7.98,5.98c-0.23,2.69-4.43,4.33-8.8,4.33C6.7,31.7,6.7,31.11,6.7,30.62z M19.79,33.66c-0.19,0.54-1.76,1.29-3.31,1.83c0,0-0.22-1.12-0.37-2.62c1.3-0.1,3.25-0.03,3.66,0.61C19.81,33.54,19.82,33.59,19.79,33.66z M10.13,37.16c-0.08,0.01-0.16,0.02-0.25,0.02c-0.28,0-0.56-0.09-0.83-0.26c-0.4-0.25-1.49-1.8-1.77-2.61C7.21,34.14,7.21,34,7.27,33.9c0.08-0.14,0.26-0.18,0.25-0.18l0,0l3.22-0.43l0.86,3.52L10.13,37.16z M12.39,36.57l-0.79-3.34l3.48-0.28c0.23,2.01,0.51,2.78,0.51,2.78L12.39,36.57z M17.44,42.17l-3.58-1.61c-0.18-0.08-0.22-0.24-0.21-0.36s0.1-0.27,0.29-0.31l2.62-0.62c0.44,1.3,1.31,2.72,1.31,2.72S17.5,42.2,17.44,42.17z M18.57,41.66c-0.28-0.5-0.7-1.37-1.12-2.59c0.61-0.09,1.23-0.14,1.77-0.14c0.85,0,1.51,0.13,1.66,0.46C21.11,39.91,19.88,40.91,18.57,41.66z M40.06,38.2c-0.27,0.61-0.94,1.13-1.59,1.38s-2.38,1.01-6.47,1.01s-5.83-0.77-6.47-1.01s-1.31-0.77-1.59-1.38c-0.27-0.61-1.61-3.44-1.61-8.48s2.43-10.37,2.43-10.37s3.18-0.31,7.23-0.31s7.23,0.31,7.23,0.31s2.43,5.34,2.43,10.37C41.67,34.76,40.33,37.6,40.06,38.2z M43.06,39.17c0.15-0.33,0.81-0.46,1.66-0.46c0.54,0,1.16,0.05,1.77,0.14c-0.42,1.23-0.85,2.09-1.12,2.59C44.05,40.7,42.82,39.7,43.06,39.17zM50.06,40.35l-3.58,1.61c-0.06,0.03-0.43-0.17-0.43-0.17s0.87-1.42,1.31-2.72l2.62,0.62c0.19,0.04,0.27,0.18,0.29,0.31S50.24,40.27,50.06,40.35z M50.73,38.12l-2.95-0.81c0,0,0.39-1.12,0.48-2.48l3.34,0.38C51.31,36.39,50.98,37.41,50.73,38.12zM55.65,36.38l-1.42,1.35c-0.68,0.65-1.66,0.88-2.56,0.62l-0.05-0.02c0.23-0.66,0.58-1.75,0.9-3.03l2.92,0.42c0.15,0.02,0.26,0.12,0.31,0.26C55.8,36.13,55.76,36.28,55.65,36.38z M56.63,33.9c-0.04,0.03-0.07,0.04-0.17,0.03c-0.01,0-1.66,0.04-3.62-0.11c0.21-1.08,0.33-2.1,0.38-3.05c1.46,0,3.12,0.02,3.21,0.02c0.15,0.01,0.46,0.03,0.46,1.59C56.9,33.53,56.71,33.83,56.63,33.9z"/>
	<path class="st0" d="M13.02,26.82c0-0.68-1.95-1.41-1.95-1.41s-0.36,0.5-0.36,1.41c0,0.92,0.36,1.45,0.36,1.45S13.02,27.49,13.02,26.82z"/>
	<path class="st0" d="M16.35,25.39c0,0-1.95,0.74-1.95,1.41c0,0.68,1.95,1.45,1.95,1.45s0.36-0.54,0.36-1.45C16.71,25.88,16.35,25.39,16.35,25.39z"/>
	<path class="st0" d="M13.69,26.12c0.68,0,1.41-1.95,1.41-1.95s-0.5-0.36-1.41-0.36c-0.92,0-1.45,0.36-1.45,0.36S13.01,26.12,13.69,26.12z"/>
	<path class="st0" d="M13.71,27.51c-0.68,0-1.45,1.95-1.45,1.95s0.54,0.36,1.45,0.36c0.92,0,1.41-0.36,1.41-0.36S14.38,27.51,13.71,27.51z"/>
</g>
<g id="cone">
	<path class="st0" d="M38.59,13.42l-0.69-2.25c-0.13-0.41-0.49-0.7-0.9-0.7h-1.1l0.36,1.19l0.11,0.37l-0.33,0.2c-0.07,0.04-1.77,1.07-4.06,1.07c-2.3,0-3.97-1.03-4.04-1.07l-0.33-0.2l0.11-0.37l0.36-1.19H27c-0.41,0-0.77,0.28-0.9,0.7l-0.69,2.25c-0.2,0.65,0.25,1.33,0.9,1.33H37.7C38.34,14.74,38.79,14.07,38.59,13.42z"/>
	<path class="st0" d="M35.5,11.56l-0.87-2.85c-0.7,0.1-1.63,0.2-2.68,0.2c-1,0-1.89-0.09-2.58-0.19l-0.87,2.84c0,0,1.48,0.92,3.49,0.92C34,12.48,35.5,11.56,35.5,11.56z"/>
	<path class="st0" d="M33.91,6.35L32.73,2.5c0,0-0.34,0.09-0.73,0.09S31.27,2.5,31.27,2.5l-1.18,3.85C30.79,6.43,31.52,6.5,32,6.5C32.49,6.51,33.21,6.44,33.91,6.35z"/>
</g>
</svg>
